X:19604
T:Stool of Repentance, The
R:Jig
C:Trad.
O:Scotland
Z:Paul Hardy's Annex Tunebook 2015 (see www.paulhardy.net). Creative Commons cc by-nc-sa licenced.
M:6/8
L:1/8
Q:3/8=90
K:G
"G"g2d B2d|gfe dcB|"C"gee "G"e2d|"Am7"egf "D7"e2d|
"G"g2d B2d|gfe dcB|"C"c2d "G"e2d|"Am"e<gB "D7"A2G:|
|:"G"BGG dGG|BGG dcB|"Am"cAA eAA|cAA "D7"edc|
"G"BGG dGG|BGG dcB|"C"c2d "G"e2d|"Am"e<gB "D7"A2G:|

